X: 493
T: Bülbül-i Hoş Nevâ
C: Dede Efendi
O: Turkey
F: http://compmusic.upf.edu/node/140
N: ferahfeza--sarki--semai--bulbul-i_hos_neva--dede_efendi
N: makam= ferahfeza
N: form= sarki
N: usul= semai = 3/4
M: 3/4
L: 1/16
K: C _B   
Q: 1/4=132
%%MIDI tuningsystem comma53
d4 d2^c2 d2e2  | f4 f2e2 f2d2  | e4 e2d2 ^c2e2  | d12  | \
w:  ARANAĞME  |   |   |   | 
f4 f2e2 f2g2  | 
w:   | 
a4 a2g2 a2f2  | g4 g2f2 e2g2  | f12  | a4 a2g2 a2b2  | \
w:   |   |   |   | 
c'4 c'2_1/4b2 c'2a2  | 
w:   | 
f4 f2e2 f2d2  | c12  | g4 g2^f2 g2a2  | \
w:   |   |   | 
b4 b2a2 b2g2  | e4 d4 ^c4  | A12  | A4 A2G2 A2_1/4B2  | 
w:   |   |   |   | 
c4 c2_1/4B2 c2d2  | e4 e2d2 e2f2  | g12  | \
w:   |   |   | 
f4 e4 d4  | ^c4 d4 e4  | A8 a4  | d12  | d8 e4  | 
w:   |   |   |   |  Bül bül_  | 
f8 e4  | d4 ^c4 d4  | e12  | a8 g4  | f4 e4 d4  | \
w:  i   |  hoş  *  ne  |  vâ    |  Lût fu  |  nu   | 
^c8 d4  | ^c4 _7/8B4 A4  | d8 e4  | f8 e4  | \
w:  tut  re  |  vâ    |  Bül bül_  |  i   | 
d4 ^c4 d4  | 
w:  hoş  *  ne  | 
e12  | a8 g4  | f4 e4 d4  | ^c8 e4  | d12  | a8 a4  | a12  | \
w:  vâ    |  Lût fu  |  nu   |  tut  re  |  vâ    |  Ben de  |  yim   | 
g8 b4  | a4 g4 f4  | d8 d4  | ^c12  | A4 _7/8B4 ^c4  | 
w:  ben  sa  |  na    |  Mer ha  |  met   |  kıl  *  ba  | 
d12  | A8 A4  | c12  | B4 A4 d4  | c12  | A8 G4  | \
w:  na    |  Ben de  |  yim   |  ben  *  sa  |  na    |  Mer ha  | 
F4 E4 D4  | ^C8 E4  | D12  | d4 d2^c2 d2e2  | 
w:  met   |  kıl  ba  |  na    |  ARANAĞME  | 
f4 f2e2 f2d2  | e4 e2d2 ^c2e2  | d12  | \
w:   |   |   | 
f4 f2e2 f2g2  | a4 a2g2 a2f2  | 
w:   |   | 
g4 g2f2 e2g2  | f12  | a4 a2g2 a2b2  | c'4 c'2_1/4b2 c'2a2  | \
w:   |   |   |   | 
f4 f2e2 f2d2  | 
w:   | 
c12  | g4 g2^f2 g2a2  | b4 b2a2 b2g2  | \
w:   |   |   | 
e4 d4 ^c4  | A12  | A4 A2G2 A2_1/4B2  | \
w:   |   |   | 
c4 c2_1/4B2 c2d2  | 
w:   | 
e4 e2d2 e2f2  | g12  | f4 e4 d4  | ^c4 d4 e4  | \
w:   |   |   |   | 
A8 a4  | d12  | d8 e4  | f8 e4  | d4 ^c4 d4  | 
w:   |   |  Bül bül_  |  i   |  hoş  *  ne  | 
e12  | a8 g4  | f4 e4 d4  | ^c8 d4  | ^c4 _7/8B4 A4  | \
w:  vâ    |  Lût fu  |  nu   |  tut  re  |  vâ    | 
d8 e4  | f8 e4  | d4 ^c4 d4  | e12  | a8 g4  | 
w:  Bül bül_  |  i   |  hoş  *  ne  |  vâ    |  Lût fu  | 
f4 e4 d4  | ^c8 e4  | d12  | a8 a4  | a12  | g8 b4  | \
w:  nu   |  tut  re  |  vâ    |  Ben de  |  yim   |  ben  sa  | 
a4 g4 f4  | d8 d4  | ^c12  | A4 _7/8B4 ^c4  | d12  | 
w:  na    |  Mer ha  |  met   |  kıl  *  ba  |  na    | 
A8 A4  | c12  | B4 A4 d4  | c12  | A8 G4  | F4 E4 D4  | \
w:  Ben de  |  yim   |  ben  *  sa  |  na    |  Mer ha  |  met   | 
^C8 E4  | D12  | |


